**kern	**text	**kern	**text	**kern	**text	**kern	**text	**kern	**text
*staff5	*staff5	*staff4	*staff4	*staff3	*staff3	*staff2	*staff2	*staff1	*staff1
=1-	=1-	=1-	=1-	=1-	=1-	=1-	=1-	=1-	=1-
*clefF4	*	*clefGv2	*	*clefG2	*	*clefG2	*	*clefG2	*
*k[]	*	*k[]	*	*k[]	*	*k[]	*	*k[]	*
*M4/4	*	*M4/4	*	*M4/4	*	*M4/4	*	*M4/4	*
1r	.	1r	.	1r	.	1r	.	[1ee\	Men-
=2	=2	=2	=2	=2	=2	=2	=2	=2	=2
1r	.	1r	.	1r	.	1r	.	2ee\]	.
.	.	.	.	.	.	.	.	2a/	treil
=3	=3	=3	=3	=3	=3	=3	=3	=3	=3
1r	.	1r	.	[1a/	Men-	1r	.	1ee\	lau-
=4	=4	=4	=4	=4	=4	=4	=4	=4	=4
1r	.	1r	.	2a/]	.	[1a/	Men-	2ff\	ro
.	.	.	.	2d/	treil	.	.	2ff\	gen-
=5	=5	=5	=5	=5	=5	=5	=5	=5	=5
1r	.	1r	.	2.a/	lau-	2a/]	.	2ee\	til
.	.	.	.	.	.	2d/	treil	2ff\	dai
.	.	.	.	4g/	.	.	.	.	.
=6	=6	=6	=6	=6	=6	=6	=6	=6	=6
1r	.	1r	.	4f/	.	1a/	lau-	4dd\	ra-
.	.	.	.	4e/	.	.	.	4cc\	mi
.	.	.	.	[2d/	.	.	.	[2ff\	d'o-
=7	=7	=7	=7	=7	=7	=7	=7	=7	=7
[1A\	Men-	1r	.	4d/]	.	2a/	ro	2ff\]	.
.	.	.	.	4d/	ro	.	.	.	.
.	.	.	.	2c/	gen-	2a/	gen-	[2ee\	.
=8	=8	=8	=8	=8	=8	=8	=8	=8	=8
2A\]	.	1r	.	2f/	til	2a/	til	4ee\]	.
.	.	.	.	.	.	.	.	8dd\L	.
.	.	.	.	.	.	.	.	8cc\J	.
2D\	trail	.	.	2f/	dai	2a/	dai	2dd\	.
=9	=9	=9	=9	=9	=9	=9	=9	=9	=9
1A\	lau-	[1e\	Men-	2e/	ra-	1cc\	ra-	1ee\	ro
.	.	.	.	2A/	mi	.	.	.	.
=10	=10	=10	=10	=10	=10	=10	=10	=10	=10
2G\	ro	2e\]	.	4B/	d'o-	2b\	mi	1r	.
.	.	.	.	4c/	.	.	.	.	.
2F\	gen-	2A/	treil	4d/	.	[2a/	d'o-	.	.
.	.	.	.	4c/	.	.	.	.	.
=11	=11	=11	=11	=11	=11	=11	=11	=11	=11
2E\	til	1e\	lau-	4c/	.	4a/]	.	[1ee\	Men-
.	.	.	.	8B/L	.	8g/L	.	.	.
.	.	.	.	8A/J	.	8f/J	.	.	.
2E\	dai	.	.	2B/	.	2g/	.	.	.
=12	=12	=12	=12	=12	=12	=12	=12	=12	=12
[1A\	ra-	2e\	ro	2c/	ro	2.a/	.	2ee\]	.
.	.	2f\	gen-	2c/	Men-	.	.	2a/	treil
.	.	.	.	.	.	4b\	.	.	.
=13	=13	=13	=13	=13	=13	=13	=13	=13	=13
2A\]	.	2e\	til	2c/	treil	1cc\	ro	1ee\	lau-
2A\	mi	2a\	dai	[2cc\	lau-	.	.	.	.
=14	=14	=14	=14	=14	=14	=14	=14	=14	=14
1d\	d'o-	2a\	ra-	4cc\]	.	1r	.	2ff\	ro
.	.	.	.	4cc\	ro	.	.	.	.
.	.	4g\	.	2b\	gen-	.	.	2ff\	gen-
.	.	4f\	.	.	.	.	.	.	.
=15	=15	=15	=15	=15	=15	=15	=15	=15	=15
1c\	ro	[1g\	.	2cc\	til	1r	.	2ee\	til
.	.	.	.	2cc\	dai	.	.	2ee\	dai
=16	=16	=16	=16	=16	=16	=16	=16	=16	=16
1r	.	2g\]	.	4b\	ra-	1r	.	2dd\	ra-
.	.	.	.	4b\	mi	.	.	.	.
.	.	2a\	mi	[2a/	d'o-	.	.	2cc\	mi
=17	=17	=17	=17	=17	=17	=17	=17	=17	=17
1r	.	1e\	d'o-	4a/]	.	2r	.	1b\	d'o-
.	.	.	.	8g/L	.	.	.	.	.
.	.	.	.	8f/J	.	.	.	.	.
.	.	.	.	2g/	.	[2e/	Col	.	.
=18	=18	=18	=18	=18	=18	=18	=18	=18	=18
2r	.	1A/	ro	[1a/	ro	4e/]	.	[1cc\	ro
.	.	.	.	.	.	4e/	suo	.	.
[2A\	Col	.	.	.	.	2e/	rez-	.	.
=19	=19	=19	=19	=19	=19	=19	=19	=19	=19
4A\]	.	4r	.	1a/]	.	2f/	zo	1cc\]	.
4A\	suo	2c\	Col	.	.	.	.	.	.
2G\	rez-	.	.	.	.	4e/	ris-	.	.
.	.	4f\	suo	.	.	[4a/	to-	.	.
=20	=20	=20	=20	=20	=20	=20	=20	=20	=20
2B-\	zo	2d\	rez-	1r	.	4a/]	.	1r	.
.	.	.	.	.	.	4g/	ro	.	.
4A\	ris-	2a\	zo	.	.	2f/	Fec-	.	.
[4d\	to-	.	.	.	.	.	.	.	.
=21	=21	=21	=21	=21	=21	=21	=21	=21	=21
4d\]	.	4g\	ris-	1r	.	4e/	ce&agrave;	2r	.
4c#\	ro	8a\L	to-	.	.	4e/	me	.	.
.	.	8g\J	.	.	.	.	.	.	.
2d\	Fec-	8f\L	.	.	.	4d/	sol	[2a/	Col
.	.	8e\J	.	.	.	.	.	.	.
.	.	[4d\	.	.	.	[4f/	Col	.	.
=22	=22	=22	=22	=22	=22	=22	=22	=22	=22
4A\	ce&agrave;	4d\]	.	1r	.	4f/]	.	4a/]	.
4A\	me	4c\	ro	.	.	4e/	suo	4a/	suo
2D\	sol	2d\	Fec-	.	.	2f/	rez-	2a/	rez-
=23	=23	=23	=23	=23	=23	=23	=23	=23	=23
4r	.	4G/	ce&agrave;	1r	.	4d/	zo	2b-\	zo
2d\	Col	4G/	me	.	.	4g/	ris-	.	.
.	.	4d\	sol	.	.	2f/	to-	4a/	ris-
4D\	suo	[4a\	Col	.	.	.	.	[4dd\	to-
=24	=24	=24	=24	=24	=24	=24	=24	=24	=24
2A\	rez-	4a\]	.	2r	.	4f/	ro	4dd\]	.
.	.	2A/	suo	.	.	4e/	Fec-	4cc\	ro
4D\	zo	.	.	[2a/	Col	4d/	ce&agrave;	2ff\	Fec-
4D\	ris-	[4d\	rez-	.	.	4d/	me	.	.
=25	=25	=25	=25	=25	=25	=25	=25	=25	=25
2A\	to-	4d\]	.	4a/]	.	2e/	sol	4ee\	ce&agrave;
.	.	4c\	zo	4a/	suo	.	.	4ee\	me
2F\	ro	4c\	ris-	2a/	rez-	2r	.	4.ff\	sol
.	.	[4d\	to-	.	.	.	.	.	.
.	.	.	.	.	.	.	.	8ee\	.
=26	=26	=26	=26	=26	=26	=26	=26	=26	=26
2G\	Fec-	4d\]	.	2b-\	zo	1r	.	2dd\	.
.	.	4g\	ro	.	.	.	.	.	.
4D\	ce&agrave;	4f\	Fec-	4a/	ris-	.	.	4r	.
4D\	me	4a\	ce&agrave;	[4d/	to-	.	.	4ff\	Col
=27	=27	=27	=27	=27	=27	=27	=27	=27	=27
2A\	sol	1a\	me	4d/]	.	2r	.	4ff\	suo
.	.	.	.	4c/	ro	.	.	2ee\	rez-
4r	.	.	.	2f/	Fec-	[2a/	Col	.	.
[4d\	Col	.	.	.	.	.	.	4dd\	zo
=28	=28	=28	=28	=28	=28	=28	=28	=28	=28
4d\]	.	2A/	sol	4e/	ce&agrave;	4a/]	.	2ee\	ris-
4c#\	suo	.	.	4e/	me	4a/	suo	.	.
2d\	rez-	4r	.	4d/	sol	2a/	rez-	2ff\	to-
.	.	[4d\	Col	4f/	Fec-	.	.	.	.
=29	=29	=29	=29	=29	=29	=29	=29	=29	=29
4G\	zo	4d\]	.	4g/	cea	2b-\	zo	4dd\	ro
4G\	ris-	4d\	suo	4g/	me	.	.	2dd\	Fec-
2D\	to-	2d\	rez-	2f/	sol	4a/	ris-	.	.
.	.	.	.	.	.	[4d/	to-	4a/	ce&agrave;
=30	=30	=30	=30	=30	=30	=30	=30	=30	=30
4D\	ro	2f\	zo	1r	.	4d/]	.	4.a/	me
2A\	Fec-	.	.	.	.	4c/	ro	.	.
.	.	.	.	.	.	.	.	8b\	.
.	.	4e\	ris-	.	.	4c/	Fec-	2cc\	.
4F\	ce&agrave;	[4a\	to-	.	.	4f/	ce&agrave;	.	.
=31	=31	=31	=31	=31	=31	=31	=31	=31	=31
2B\	me	4a\]	.	4r	.	2d/	me	2dd\	sol
.	.	4g\	ro	4d/	dal	.	.	.	.
2A\	sol	[2a\	Fec-	4f/	ciel	2c/	sol	4r	.
.	.	.	.	4e/	gl'im-	.	.	4ee\	dal
=32	=32	=32	=32	=32	=32	=32	=32	=32	=32
1r	.	4a\]	.	4d/	pet-	1r	.	4ff\	ciel
.	.	4a\	ce&agrave;	4c/	trai	.	.	4ee\	gl'im-
.	.	2a\	me	4.f/	vi-	.	.	4dd\	pet-
.	.	.	.	.	.	.	.	4cc\	trai
.	.	.	.	8g/	.	.	.	.	.
=33	=33	=33	=33	=33	=33	=33	=33	=33	=33
2r	.	2d\	sol	2a/	.	4r	.	2ff\	vi-
.	.	.	.	.	.	4a/	dal	.	.
4r	.	4r	.	2a/	ta	[2cc\	ciel	[2ee\	ta
4A\	dal	4a\	dal	.	.	.	.	.	.
=34	=34	=34	=34	=34	=34	=34	=34	=34	=34
2.c\	ciel	4.g\	ciel	1r	.	4cc\]	.	2ee\]	.
.	.	.	.	.	.	4b\	gl'im-	.	.
.	.	8f\	.	.	.	.	.	.	.
.	.	4e\	.	.	.	4a/	pet-	2r	.
4B\	gl'im-	4d\	gl'im-	.	.	4g/	trai	.	.
=35	=35	=35	=35	=35	=35	=35	=35	=35	=35
4A\	pet-	4c\	pe-	2r	.	8f/L	vi-	1r	.
.	.	.	.	.	.	8e/J	.	.	.
4G\	trai	4B\	trai	.	.	2e/	.	.	.
2F\	vi-	4.A/	vi-	2a/	Ma	.	.	.	.
.	.	.	.	.	.	4d/	.	.	.
.	.	8B\	.	.	.	.	.	.	.
=36	=36	=36	=36	=36	=36	=36	=36	=36	=36
1E\	ta	4c\	.	2a/	por	1e/	ta	2r	.
.	.	8B/L	.	.	.	.	.	.	.
.	.	8A/J	.	.	.	.	.	.	.
.	.	2B\	.	2g/	ch'al	.	.	2ee\	Ma
=37	=37	=37	=37	=37	=37	=37	=37	=37	=37
1r	.	2A/	ta	2f/	cal-	1r	.	2ee\	poi
.	.	2a\	Ma	2f/	doal-	.	.	2dd\	ch'al
=38	=38	=38	=38	=38	=38	=38	=38	=38	=38
1r	.	2a\	poi	1e/	trui	1r	.	2cc\	cal-
.	.	2g\	ch'al	.	.	.	.	2b\	doal-
=39	=39	=39	=39	=39	=39	=39	=39	=39	=39
2r	.	1f\	cal-	1r	.	1r	.	[1a/	trui
2d\	Ma	.	.	.	.	.	.	.	.
=40	=40	=40	=40	=40	=40	=40	=40	=40	=40
2d\	poi	2f\	do	1r	.	2a/	Ma	2a/]	.
2c\	ch'al	2e\	Ma	.	.	2a/	poi	2r	.
=41	=41	=41	=41	=41	=41	=41	=41	=41	=41
2B-\	cal-	2d\	poi	2r	.	2g/	ch'al	1r	.
2A\	doal-	2c\	ch'al	2a/	Ma	[2f/	cal-	.	.
=42	=42	=42	=42	=42	=42	=42	=42	=42	=42
1B\	trui	2d\	cal-	2a/	poi	2f/]	.	2r	.
.	.	2d\	doal-	2g/	ch'al	2d/	doal-	2dd\	Ma
=43	=43	=43	=43	=43	=43	=43	=43	=43	=43
1r	.	1A/	trui	2f/	cal-	2a/	trui	2dd\	poi
.	.	.	.	2e/	doal	4r	.	2cc#\	ch'al
.	.	.	.	.	.	4a/	por-	.	.
=44	=44	=44	=44	=44	=44	=44	=44	=44	=44
1r	.	2r	.	1d/	trui	4f/	gean-	4dd\	cal-
.	.	.	.	.	.	4g/	coa-	4ee\	doal-
.	.	4r	.	.	.	4.a/	iu-	4ff\	trui
.	.	4d\	por-	.	.	.	.	4ff\	por-
.	.	.	.	.	.	16g/LL	.	.	.
.	.	.	.	.	.	16f/JJ	.	.	.
=45	=45	=45	=45	=45	=45	=45	=45	=45	=45
1r	.	4c\	gean-	4r	.	8g/L	.	4ee\	gean-
.	.	.	.	.	.	8e/J	.	.	.
.	.	4d\	coa-	4a/	por-	2a/	.	4ff\	coa-
.	.	2e\	iu-	4cc\	gean-	.	.	2ee\	iu-
.	.	.	.	4b\	coa-	4g/	.	.	.
=46	=46	=46	=46	=46	=46	=46	=46	=46	=46
2r	.	2A/	ta	1a/	iu-	4a/	ta	1cc\	ta
.	.	.	.	.	.	4e/	por-	.	.
4r	.	4r	.	.	.	2f/	gean-	.	.
4A\	por-	4c\	por-	.	.	.	.	.	.
=47	=47	=47	=47	=47	=47	=47	=47	=47	=47
4c\	gean-	4e\	gean-	2g/	ta	4e/	coa-	1r	.
4B\	coa-	4d\	coa-	.	.	2g/	iu-	.	.
2A\	iu-	2c\	iu-	4r	.	.	.	.	.
.	.	.	.	4c/	por-	4f/	.	.	.
=48	=48	=48	=48	=48	=48	=48	=48	=48	=48
2G\	ta	4B\	ta	4e/	gean-	1g/	ta	4r	.
.	.	4B\	por-	4d/	coa-	.	.	4dd\	por-
4r	.	4c\	gean-	4c/	iu-	.	.	4.ee\	gean-
4E\	por-	4B\	coa-	8G/L	ta	.	.	.	.
.	.	.	.	8g/J	por-	.	.	8dd\	.
=49	=49	=49	=49	=49	=49	=49	=49	=49	=49
4F\	gean-	8A/L	iu-	4a/	gean-	1r	.	4cc\	.
.	.	8B/J	.	.	.	.	.	.	.
4E\	coa-	2c\	.	4g/	coa-	.	.	4cc\	coa-
2D\	iu-	.	.	2f/	iu-	.	.	2dd\	iu-
.	.	4B\	.	.	.	.	.	.	.
=50	=50	=50	=50	=50	=50	=50	=50	=50	=50
1C/	ta	2c\	ta	2e/	ta	2r	.	2g/	ta
.	.	2G/	Non	2g/	Non	2e/	Non	2cc\	Non
=51	=51	=51	=51	=51	=51	=51	=51	=51	=51
2r	.	2c\	pi&ugrave;	1g/	pi&ugrave;	2e/	pi&ugrave;	1cc\	pi&ugrave;
2c\	Non	2e\	Non	.	.	4r	.	.	.
.	.	.	.	.	.	4g/	Non	.	.
=52	=52	=52	=52	=52	=52	=52	=52	=52	=52
1c\	pi&ugrave;	2e\	pi&ugrave;	2r	.	1g/	pi&ugrave;	2r	.
.	.	4r	.	2cc\	Non	.	.	2ee\	Non
.	.	4c\	Non	.	.	.	.	.	.
=53	=53	=53	=53	=53	=53	=53	=53	=53	=53
4r	.	2c\	pi&ugrave;	1cc\	pi&ugrave;	4r	.	1ee\	pi&ugrave;
4C/	Non	.	.	.	.	4g/	Non	.	.
[2C/	pi&ugrave;	4r	.	.	.	2g/	pi&ugrave;	.	.
.	.	4g\	Non	.	.	.	.	.	.
=54	=54	=54	=54	=54	=54	=54	=54	=54	=54
2C/]	.	1g\	pi&ugrave;	4r	.	4r	.	4r	.
.	.	.	.	4g/	Non	4c/	Non	4ee\	Non
4r	.	.	.	[2cc\	pi&ugrave;	8c/L	pi&ugrave;	[2ee\	pi&ugrave;
.	.	.	.	.	.	8d/J	.	.	.
4c\	Non	.	.	.	.	8e/L	.	.	.
.	.	.	.	.	.	8f/J	.	.	.
=55	=55	=55	=55	=55	=55	=55	=55	=55	=55
4c\	pi&ugrave;	1r	.	4cc\]	.	4g/	.	4ee\]	.
4G\	stiain	.	.	4b\	stain	4g/	stain	4dd\	stiain
2D\	vi-	.	.	2a/	vi-	2f/	vi-	2dd\	vi-
=56	=56	=56	=56	=56	=56	=56	=56	=56	=56
1E\	ta	2r	.	1g#/	ta	2e/	ta	4b\	ta
.	.	.	.	.	.	.	.	2b\	Ma
.	.	2e\	Ma	.	.	4r	.	.	.
.	.	.	.	.	.	4b\	Ma	4b\	gli
=57	=57	=57	=57	=57	=57	=57	=57	=57	=57
1r	.	4e\	gli	1r	.	4b\	gli	4.ee\	lie-
.	.	2a\	lie-	.	.	2cc\	lie-	.	.
.	.	.	.	.	.	.	.	8dd\	.
.	.	.	.	.	.	.	.	2cc\	.
.	.	[4f\	viA-	.	.	[4a/	viA	.	.
=58	=58	=58	=58	=58	=58	=58	=58	=58	=58
1r	.	4f\]	.	1r	.	4a/]	.	4dd\	viA
.	.	4g\	qui-	.	.	4b\	qui-	4dd\	qui-
.	.	2c\	lon	.	.	4cc\	lon	2ee\	lon
.	.	.	.	.	.	[4g/	fred-	.	.
=59	=59	=59	=59	=59	=59	=59	=59	=59	=59
1r	.	2c\	fred-	1r	.	4g/]	.	2ee\	fred-
.	.	.	.	.	.	2a/	doog-	.	.
.	.	4d\	doog-	.	.	.	.	[2dd\	doog-
.	.	4d\	ni	.	.	[4b\	ni	.	.
=60	=60	=60	=60	=60	=60	=60	=60	=60	=60
2.E\	Ma	2e\	al-	2r	.	4b\]	.	4dd\]	.
.	.	.	.	.	.	2a/	al-	4cc\	ni
.	.	2e\	ta	4r	.	.	.	2b\	al-
4E\	gli	.	.	[4e/	Ma	4g/	ta	.	.
=61	=61	=61	=61	=61	=61	=61	=61	=61	=61
4.A\	le-	4c\	Ma	4e/]	.	4a/	Ma	1cc\	ta
.	.	4c\	gli	4e/	gli	2a/	gli	.	.
8G\	.	.	.	.	.	.	.	.	.
2F\	.	2f\	le-	4a/	le-	.	.	.	.
.	.	.	.	[4cc\	viA-	4a/	le-	.	.
=62	=62	=62	=62	=62	=62	=62	=62	=62	=62
4G\	viA-	4e\	viA-	4cc\]	.	2g/	viA-	1r	.
4G\	qui-	4d\	qui-	4b\	qui-	.	.	.	.
2A\	lon	2c\	lon	4cc\	lon	4e/	qui-	.	.
.	.	.	.	[4a/	fred-	4e/	lon	.	.
=63	=63	=63	=63	=63	=63	=63	=63	=63	=63
2A\	fred-	2.e\	fred-	4a/]	.	4c/	fred-	1r	.
.	.	.	.	2cc\	do	4c/	do	.	.
[2G\	doog-	.	.	.	.	4g/	og-	.	.
.	.	[4d\	doog-	[4b\	og-	4g/	ni	.	.
=64	=64	=64	=64	=64	=64	=64	=64	=64	=64
4G\]	.	4d\]	.	4b\]	.	2d/	al-	1r	.
4F\	ni	4A/	ni	2a/	ni	.	.	.	.
2E\	al-	2B\	al-	.	.	2e/	ta	.	.
.	.	.	.	4g/	al-	.	.	.	.
=65	=65	=65	=65	=65	=65	=65	=65	=65	=65
1A\	ta	2c\	ta	2a/	ta	4r	.	2r	.
.	.	.	.	.	.	2e/	Ma	.	.
.	.	4r	.	4r	.	.	.	4cc\	Ma
.	.	4c\	Ma	[4a/	Ma	4e/	gli	4cc\	gli
=66	=66	=66	=66	=66	=66	=66	=66	=66	=66
1r	.	4d\	gli	4a/]	.	4a/	le-	2ff\	le-
.	.	4A/	le-	4a/	gli	2cc\	viA-	.	.
.	.	4c\	viA-	2g/	le-	.	.	4ee\	viA-
.	.	4G/	qui-	.	.	4b\	qui-	4dd\	qui-
=67	=67	=67	=67	=67	=67	=67	=67	=67	=67
2r	.	4c\	lon	4e/	viA-	4cc\	lon	4cc\	lon
.	.	2c\	Ma	4e/	qui-	2g/	Ma	2ee\	Ma
4C/	Ma	.	.	4c/	lon	.	.	.	.
4C/	gli	4G/	gli	[4c/	Ma	4cc\	gli	4ee\	gli
=68	=68	=68	=68	=68	=68	=68	=68	=68	=68
2F\	le-	4A/	le-	4c/]	.	2a/	le-	2cc\	le-
.	.	2c\	viA-	4A/	gli	.	.	.	.
4E\	viA-	.	.	4e/	le-	4g/	viA-	4cc\	viA-
4D\	qui-	4A/	qui-	[4a/	viA-	4f/	qui-	4dd\	qui-
=69	=69	=69	=69	=69	=69	=69	=69	=69	=69
1C/	lon	1c\	lon	4a/]	.	2e/	lon	2ee\	lon
.	.	.	.	4g/	qui-	.	.	.	.
.	.	.	.	2g/	lon	[2e/	fred-	[2cc\	fred-
=70	=70	=70	=70	=70	=70	=70	=70	=70	=70
1c\	fred-	1e\	fred-	2g/	fred-	2e/]	.	4cc\]	.
.	.	.	.	.	.	.	.	4dd\	.
.	.	.	.	2cc\	doog-	[2g/	doog-	4ee\	.
.	.	.	.	.	.	.	.	4ff\	.
=71	=71	=71	=71	=71	=71	=71	=71	=71	=71
2G\	doog-	2d\	doog-	2b\	ni	4g/]	.	2gg\	.
.	.	.	.	.	.	4G/	ni	.	.
2A\	ni	2c\	ni	[2a/	al-	4.c/	al-	4ee\	doog-
.	.	.	.	.	.	.	.	4ee\	ni
.	.	.	.	.	.	8d/	.	.	.
=72	=72	=72	=72	=72	=72	=72	=72	=72	=72
1E\	al-	1B\	al-	4a/]	.	1e/	.	1ee\	al-
.	.	.	.	8g/L	.	.	.	.	.
.	.	.	.	8f/J	.	.	.	.	.
.	.	.	.	2g/	.	.	.	.	.
=73	=73	=73	=73	=73	=73	=73	=73	=73	=73
1A\	ta	2c\	ta	4a/	ta	2e/	ta	2ee\	ta
.	.	.	.	2e/	Ma	.	.	.	.
.	.	4r	.	.	.	4r	.	4cc\	Ma
.	.	4c\	Ma	4e/	gli	[4a/	Ma	4cc\	gli
=74	=74	=74	=74	=74	=74	=74	=74	=74	=74
1r	.	4d\	gli	4a/	le-	4a/]	.	2ff\	le-
.	.	4A/	le-	2cc\	viA-	4a/	gli	.	.
.	.	4c\	viA-	.	.	2g/	le-	4ee\	viA-
.	.	4G/	qui-	4b\	qui-	.	.	4dd\	qui-
=75	=75	=75	=75	=75	=75	=75	=75	=75	=75
2r	.	4c\	lon	4cc\	lon	4e/	viA-	4cc\	lon
.	.	2c\	Ma	2g/	Ma	4e/	qui-	2ee\	Ma
4C/	Ma	.	.	.	.	4c/	lon	.	.
4C/	gli	4G/	gli	4cc\	gli	[4c/	ma	4ee\	gli
=76	=76	=76	=76	=76	=76	=76	=76	=76	=76
2F\	le-	4A/	le-	2a/	le-	4c/]	.	2cc\	le-
.	.	2c\	viA-	.	.	4A/	gli	.	.
4E\	viA-	.	.	4g/	viA-	4e/	le-	4cc\	viA-
4D\	qui-	4A/	qui-	4f/	qui-	[4a/	viA-	4dd\	qui-
=77	=77	=77	=77	=77	=77	=77	=77	=77	=77
1C/	lon	1c\	lon	2e/	lon	4a/]	.	2ee\	lon
.	.	.	.	.	.	4g/	qui-	.	.
.	.	.	.	[2e/	fred-	2g/	lon	[2cc\	fred-
=78	=78	=78	=78	=78	=78	=78	=78	=78	=78
1c\	fred-	1e\	fred-	2e/]	.	2g/	fred-	4cc\]	.
.	.	.	.	.	.	.	.	4dd\	.
.	.	.	.	[2a/	doog-	2cc\	doog-	4ee\	.
.	.	.	.	.	.	.	.	4ff\	.
=79	=79	=79	=79	=79	=79	=79	=79	=79	=79
2G\	doog-	2d\	doog-	4a/]	.	2b\	ni	2gg\	.
.	.	.	.	4G/	ni	.	.	.	.
2A\	ni	2c\	ni	4.c/	al-	[2a/	al-	4ee\	doog-
.	.	.	.	.	.	.	.	4ee\	ni
.	.	.	.	8d/	.	.	.	.	.
=80	=80	=80	=80	=80	=80	=80	=80	=80	=80
1E\	al-	1B\	al-	1e/	.	4a/]	.	1ee\	al-
.	.	.	.	.	.	8g/L	.	.	.
.	.	.	.	.	.	8f/J	.	.	.
.	.	.	.	.	.	2g/	.	.	.
=81	=81	=81	=81	=81	=81	=81	=81	=81	=81
1AA/	ta.	1A/	ta.	1e/	ta.	1a/	ta.	1cc#\	ta.
==	==	==	==	==	==	==	==	==	==
*-	*-	*-	*-	*-	*-	*-	*-	*-	*-
